src/icons/SVG/64px/Navigation_Arrow_Up_64px.svg

<svg width="64" height="64" viewBox="0 0 64 64" fill="none" xmlns="http://www.w3.org/2000/svg">
  <g id="Square"> </g>
  <g id="Icon">
<path id="Vector" d="M30.5 57.5C30.5 58.3284 31.1716 59 32 59C32.8284 59 33.5 58.3284 33.5 57.5H30.5ZM32 6.5L33.0607 5.43934C32.4749 4.85355 31.5251 4.85355 30.9393 5.43934L32 6.5ZM13.4393 22.9393C12.8536 23.5251 12.8536 24.4749 13.4393 25.0607C14.0251 25.6464 14.9749 25.6464 15.5607 25.0607L13.4393 22.9393ZM48.4393 25.0607C49.0251 25.6464 49.9749 25.6464 50.5607 25.0607C51.1464 24.4749 51.1464 23.5251 50.5607 22.9393L48.4393 25.0607ZM33.5 57.5V6.5H30.5V57.5H33.5ZM30.9393 5.43934L13.4393 22.9393L15.5607 25.0607L33.0607 7.56066L30.9393 5.43934ZM30.9393 7.56066L48.4393 25.0607L50.5607 22.9393L33.0607 5.43934L30.9393 7.56066Z" fill="black"/>
</g>
</svg>

<svg xmlns="http://www.w3.org/2000/svg" viewBox="0 0 64 64">
  <g id="Square"> </g>
  <path d="M30.5 57.5a1.5 1.5 0 003 0h-3zm1.5-51l1.06-1.06a1.5 1.5 0 00-2.12 0L32 6.5zM13.44 22.94a1.5 1.5 0 002.12 2.12l-2.12-2.12zm35 2.12a1.5 1.5 0 002.12-2.12l-2.12 2.12zM33.5 57.5v-51h-3v51h3zM30.94 5.44l-17.5 17.5 2.12 2.12 17.5-17.5-2.12-2.12zm0 2.12l17.5 17.5 2.12-2.12-17.5-17.5-2.12 2.12z"/>
</svg>
